proprietary/assets/icons/geld-en-financien/motorrijtuigenbelasting.svg

<svg enable-background="new 0 0 64 64" viewBox="0 0 64 64" xmlns="http://www.w3.org/2000/svg"><path d="m0 0h64v64h-64z" fill="none"/><path d="m28.308 5h-4.15l.109 2.312h-1.533l.109-2.312h-4.15l-17.693 48h19.576l.364-7.716h5.119l.365 7.716h8.592c-.01-.698-.016-1.377-.016-2 0-3.208.105-7.662.606-10.666.364-2.19 1.955-3.941 4.046-4.559zm-5.698 4.924h1.78l.174 3.69h-2.128zm-.335 7.105h2.451l.271 5.74h-2.993zm-.945 20.002.41-8.672h3.521l.41 8.672z"/><path d="m55.794 51.93c-.847 0-1.025.976-1.025 1.795 0 1.633.508 1.853 1.005 1.853.706 0 1.063-.552 1.063-1.641.001-1.799-.595-2.007-1.043-2.007z"/><path d="m46.225 46.307c-.863 0-1.044.976-1.044 1.795 0 1.632.518 1.853 1.024 1.853.863 0 1.044-.892 1.044-1.641.001-1.799-.584-2.007-1.024-2.007z"/><path d="m63.435 40.826c-.195-1.173-1.087-2.065-2.261-2.261-3.391-.565-9.044-.565-10.174-.565s-6.783 0-10.174.565c-1.173.196-2.065 1.088-2.26 2.261-.566 3.391-.566 9.044-.566 10.174s0 6.783.565 10.174c.195 1.173 1.087 2.065 2.26 2.261 3.392.565 9.045.565 10.175.565s6.783 0 10.174-.565c1.174-.196 2.066-1.088 2.261-2.261.565-3.391.565-9.044.565-10.174 0-3.393 0-6.783-.565-10.174zm-20.576 7.449c0-2.896 1.844-3.924 3.423-3.924 2.09 0 3.289 1.374 3.289 3.77 0 2.617-1.785 3.809-3.443 3.809-1.491 0-3.269-.634-3.269-3.655zm6.434 9.727-1.839-.727 5.232-13.277 1.839.727zm6.405-.449c-1.491 0-3.269-.634-3.269-3.655 0-2.896 1.844-3.924 3.423-3.924 2.09 0 3.289 1.374 3.289 3.77 0 2.631-1.729 3.809-3.443 3.809z"/></svg>

<?xml version="1.0" encoding="utf-8"?>
<!-- Generator: Adobe Illustrator 25.2.0, SVG Export Plug-In . SVG Version: 6.00 Build 0)  -->
<svg version="1.1" xmlns="http://www.w3.org/2000/svg" xmlns:xlink="http://www.w3.org/1999/xlink" x="0px" y="0px"
	 viewBox="0 0 64 64" style="enable-background:new 0 0 64 64;" xml:space="preserve">
<style type="text/css">
	.st0{fill:none;}
	.st1{fill:#FFFFFF;}
	.st2{fill:#B3B3B3;}
</style>
<g id="Box">
	<rect class="st0" width="64" height="64"/>
</g>
<g id="Icon">
	<g>
		<path d="M28.308,5h-4.15l0.109,2.312h-1.533L22.843,5h-4.15L1,53h19.576l0.364-7.716h5.119L26.424,53h8.592
			C35.006,52.302,35,51.623,35,51c0-3.208,0.105-7.662,0.606-10.666c0.364-2.19,1.955-3.941,4.046-4.559L28.308,5z M22.61,9.924
			h1.78l0.174,3.69h-2.128L22.61,9.924z M22.275,17.029h2.451l0.271,5.74h-2.993L22.275,17.029z M21.33,37.031l0.41-8.672h3.521
			l0.41,8.672H21.33z"/>
		<path d="M55.794,51.93c-0.847,0-1.025,0.976-1.025,1.795c0,1.633,0.508,1.853,1.005,1.853c0.706,0,1.063-0.552,1.063-1.641
			C56.838,52.138,56.242,51.93,55.794,51.93z"/>
		<path d="M46.225,46.307c-0.863,0-1.044,0.976-1.044,1.795c0,1.632,0.518,1.853,1.024,1.853c0.863,0,1.044-0.892,1.044-1.641
			C47.25,46.515,46.665,46.307,46.225,46.307z"/>
		<path d="M63.435,40.826c-0.195-1.173-1.087-2.065-2.261-2.261C57.783,38,52.13,38,51,38c-1.13,0-6.783,0-10.174,0.565
			c-1.173,0.196-2.065,1.088-2.26,2.261C38,44.217,38,49.87,38,51c0,1.13,0,6.783,0.565,10.174c0.195,1.173,1.087,2.065,2.26,2.261
			C44.217,64,49.87,64,51,64s6.783,0,10.174-0.565c1.174-0.196,2.066-1.088,2.261-2.261C64,57.783,64,52.13,64,51
			C64,47.607,64,44.217,63.435,40.826z M42.859,48.275c0-2.896,1.844-3.924,3.423-3.924c2.09,0,3.289,1.374,3.289,3.77
			c0,2.617-1.785,3.809-3.443,3.809C44.637,51.93,42.859,51.296,42.859,48.275z M49.293,58.002l-1.839-0.727l5.232-13.277
			l1.839,0.727L49.293,58.002z M55.698,57.553c-1.491,0-3.269-0.634-3.269-3.655c0-2.896,1.844-3.924,3.423-3.924
			c2.09,0,3.289,1.374,3.289,3.77C59.141,56.375,57.412,57.553,55.698,57.553z"/>
	</g>
</g>
</svg>
